X:1
T:My Mom
T:My Mom
T:Walter Donaldson
C:Walter Donaldson
Z:All Rights Reserved
L:1/8
M:4/4
K:G
V:1 treble 
%%MIDI program 52
V:1
"Gmaj7" z2 z2"Am" z2"D+7" z2 |"Gmaj7" z BFG"Am7" A A3 |"Am7b5" AB/A/GA"Gmaj7" B4 | %3
w: |I`ve got one real friend|more than a friend I find|
 z BF>G"Am7" A A2 A, |"Am7b5" AB/A/GA"Gmaj7" B4 |"B7" BB/B/FA"Em" G4 |"A7" AA/A<EE/"D7" F4 | %7
w: The way I feel friend she`s|all of this heart of mine|I`m all for her I know|she`ll al- ways be for me|
"Gmaj7" z BFG"Am7" A A3 |[M:2/4]"A7" AB/A/ G>E |[M:4/4]"Am7" A6"D9" z D ||"Gmaj9" A4"Am7" z2 z G | %11
w: I`m on my way friend|I`m go- ing home to|see my|mom I|
"Bm7" F F3"Bbdim7" z4 |"Am7" z4 z DAG |"D7" F F3 z4 |"Bm7" z z z D"E7" d B3 | %15
w: love her|My mom youd|love her|Who would- n`t|
"Am7" A A3"D9" z2 z F |"G6" E8 |"Am11" z4"D" z2"D+7" z D |"Gmaj9" A2 z2"Am7" z2 z G | %19
w: love her my|mom?|That|sweet some-|
"Bm7" F F3"Bbdim7" z4 |"Bm7" z d"E7" d2-"C#m7" d3"F#9" d |"Bm7" B B3"Cdim" z2 z F | %22
w: bod- y|thinks I'm * some-|bod- y My|
"Em11" A4"A13" z2 z E |"Em11" B A3"A13" z2 (3z BF |"Am7" B A3-"D9" A2 z2 | z2 z2 z2"Eb13" z2 || %26
w: pal my|bud- dy my *|mom * *||
S"D13" z2 D/E/F/G/"D7" A4 | z4 (3DEF (3GAD |"Ebm6" ^A4"Gmaj7" B4- | B2"F#m7" z2"B7" z4 | %30
w: An- y- thing I do|She's my on- ly in- spi|ra- tion||
"E7" z2 E/F/^G/A/ B4- | B4"E7b9" z E (3F^GA | (3BEB- B>d"Am7" c4- | c2 z2"D7b9" z2 z D || %34
w: An- y- time I'm blue|* She's my on- ly|con- so- la- * * tion|* As|
"Gmaj9" A4-"Am7" A3 G |"Bm7" F F3"Bbdim7" z4 |"Am7" z E A2- A3 G |"D7" F F3- F2 z2!dacoda! | %38
w: years * come|on her|I gaze * up-|on her *|
"Bm7" z d2 d-"E7b9" d3 B |"Am7" B A3"D9" z2"D7b9" z F |"G" A6"D13b9" z2 | %41
w: she's my * Ma-|don- na my||
"G" z2"Am7" z2"Bm7" z2"Bbdim7" z2 |"Bm7" z2"C#m" z2"Bm7" z2"F#dim7" z F | %43
w: |Ny|
"Em11" A2"A13" z B,"Em11" AA"A13" z E |"Am7" A4 z4 |"D7" z2"Am7/D" z2"D9" z2 d2!D.S.! || %46
w: pal my bud- dy my|mom|Yes,|
O"Bm7" d d3-"E7b9" d3 D |"Am7" B A3"D7b9" z2 E2 |"Ebmaj7" G4"Db" z4 |"Gmaj9" z8 | z8 |] %51
w: She's my * Ma-|don- na my|Mom.|||

